src/UI/img/credit-card-unionpay.svg

<svg fill="none" height="32" viewBox="0 0 32 32" width="32" xmlns="http://www.w3.org/2000/svg"><path d="m26 4c3.3137 0 6 2.68629 6 6v12c0 3.3137-2.6863 6-6 6h-20c-3.31371 0-5.99999902-2.6863-5.99999888-6l.00000053-12c.00000014-3.31371 2.68628835-6 5.99999835-6z" fill="#fff"/><g clip-rule="evenodd" fill-rule="evenodd"><path d="m30 22v-12c0-2.20914-1.7909-4-4-4h-20c-2.20914 0-4 1.79086-4 4v12c0 2.2091 1.79086 4 4 4h20c2.2091 0 4-1.7909 4-4zm2-12c0-3.31371-2.6863-6-6-6h-20c-3.31371 0-5.99999821 2.68629-5.99999835 6l-.00000053 12c-.00000014 3.3137 2.68628888 6 5.99999888 6h20c3.3137 0 6-2.6863 6-6z" fill="#ccc"/><path d="m25.0134 9.50372-4.9252-.00128c-.0006 0-.0013 0-.0013 0-.0038 0-.0075.00068-.0112.00068-.6766.0209-1.5193.56798-1.6728 1.24248l-2.3292 10.389c-.1534.6808.2641 1.2348.9358 1.245h5.1741c.6614-.033 1.3042-.5737 1.4551-1.2406l2.3292-10.389c.1559-.6878-.2717-1.24628-.9545-1.24628z" fill="#01798a"/><path d="m16.0738 21.1346 2.3291-10.3889c.1535-.6746.9962-1.22162 1.6728-1.24252l-1.9582-.00128-3.5282-.00068c-.6784.01399-1.5321.56488-1.6855 1.24448l-2.3299 10.3889c-.154.6809.2641 1.2349.9354 1.2451h5.5002c-.6717-.0102-1.0892-.5642-.9357-1.2451z" fill="#024381"/><path d="m10.5739 21.1346 2.3298-10.389c.1535-.6795 1.0071-1.23042 1.6856-1.24441l-4.5197-.00119c-.68233 0-1.55709.5572-1.71302 1.2456l-2.32984 10.389c-.01418.0634-.02205.1255-.02674.1863v.1928c.04561.4963.42162.8577.96211.866h4.54719c-.6713-.0102-1.0895-.5643-.9354-1.2451z" fill="#dd0228"/><path d="m14.6846 17.0713h.0855c.0786 0 .1315-.0266.1563-.0792l.2222-.3354h.5952l-.1241.2206h.7137l-.0905.3379h-.8492c-.0978.1483-.2182.2181-.363.2098h-.4423zm-.0978.4843h1.5636l-.0997.3671h-.6288l-.0959.3543h.6118l-.0996.367h-.6119l-.1421.5236c-.0352.0875.011.1269.138.1179h.4987l-.0924.3411h-.9574c-.1815 0-.2437-.1046-.1868-.3144l.1817-.6682h-.3911l.0994-.367h.3911l.0959-.3543h-.3739zm2.4956-.9014-.0246.2149s.2949-.2232.5628-.2232h.9898l-.3785 1.3813c-.0314.1579-.166.2364-.4038.2364h-1.1219l-.2627.9699c-.0152.052.0062.0786.0628.0786h.2208l-.0812.3011h-.5612c-.2154 0-.305-.0653-.2695-.1964l.7426-2.7626zm.8382.3905h-.8835l-.1056.3727s.1471-.1071.393-.1109c.2452-.0039.525 0 .525 0zm-.3201.8646c.0654.0089.1019-.0171.1063-.0786l.0541-.1965h-.8848l-.0742.2751zm-.5968.4463h.5101l-.0095.2224h.1358c.0686 0 .1026-.0221.1026-.0658l.0402-.144h.4239l-.0566.2098c-.0479.175-.1748.2663-.3811.2752h-.2717l-.0012.3803c-.005.0609.0496.092.1621.092h.2554l-.0824.3011h-.6125c-.1717.0082-.2558-.0742-.2541-.2492z" fill="#fff"/><path d="m10.8238 14.814c-.0692.3417-.2296.6041-.4783.7905-.2465.1832-.5644.2751-.95362.2751-.36629 0-.63483-.0939-.80619-.2821-.11885-.1338-.17798-.3037-.17798-.5091 0-.0849.01009-.1762.03022-.2744l.4147-2.0158h.62633l-.40906 1.993c-.01259.0551-.01761.1065-.01695.1528-.00066.102.02448.1857.07542.251.0742.097.19463.1451.36222.1451.19272 0 .35152-.0475.47476-.1432.12325-.0951.20375-.2301.23995-.4057l.4103-1.993h.6232z" fill="#fff"/><path d="m13.4541 14.0209h.4905l-.3842 1.799h-.4896zm.1544-.6554h.4949l-.0925.4367h-.4948z" fill="#fff"/><path d="m14.3788 15.683c-.1283-.1236-.1931-.2903-.1937-.502 0-.0362.0021-.0774.0069-.1224.0047-.0457.0107-.09.0192-.1312.0581-.2922.182-.5242.3729-.6954.1905-.1718.4204-.258.6895-.258.2204 0 .3952.0621.5232.1864.128.1249.1921.2934.1921.5078 0 .0367-.0028.0792-.0075.1248-.0057.0463-.0126.0907-.0205.1344-.0569.2878-.1804.5173-.3713.6853-.1908.1692-.42.2535-.6873.2535-.2214 0-.3956-.0609-.5235-.1832zm.9347-.3562c.0865-.0945.1484-.2378.1862-.4285.0056-.0298.0106-.0609.0138-.092.0031-.0304.0044-.0589.0044-.0849 0-.111-.028-.1971-.0843-.258-.0559-.0615-.1355-.0919-.2383-.0919-.1358 0-.2465.0481-.3332.1445-.0875.0964-.1494.2422-.1884.4361-.0054.0298-.0098.0596-.0138.0888-.0032.0298-.0041.0577-.0035.083 0 .1103.028.1953.0843.2555.0559.0602.1351.09.2392.09.1365 0 .2472-.0476.3336-.1426z" fill="#fff"/><path d="m19.1714 17.0865.1183-.4197h.598l-.0258.154s.3056-.154.5257-.154h.7394l-.1175.4197h-.1163l-.5578 1.979h.1163l-.1107.393h-.1163l-.0484.1706h-.5791l.0483-.1706h-1.1426l.1114-.393h.1144l.5584-1.979zm.6452 0-.1522.5356s.2604-.1007.4849-.1293c.0496-.187.1144-.4063.1144-.4063zm-.2227.7866-.1527.561s.2886-.1432.4867-.1553c.0572-.2168.1145-.4057.1145-.4057zm.112 1.1924.1145-.4069h-.4464l-.1151.4069zm1.4463-2.4246h.5623l.0238.2091c-.0037.0532.0277.0786.0943.0786h.0994l-.1005.3544h-.4133c-.1578.0082-.2389-.0526-.2464-.1839zm-.1647.76h1.8211l-.1069.3804h-.5798l-.0994.3536h.5792l-.1075.3797h-.6451l-.146.2226h.3158l.0729.4456c.0087.0444.0477.0659.1144.0659h.098l-.103.367h-.3471c-.1799.0089-.2729-.0519-.2805-.1831l-.0837-.407-.2873.433c-.068.1223-.1724.1794-.3132.1705h-.5301l.1031-.3671h.1654c.068 0 .1245-.0304.1754-.0919l.4497-.6555h-.5798l.1075-.3797h.6288l.1-.3536h-.6294z" fill="#fff"/><path d="m11.4003 14.0204h.4424l-.0506.2599.0635-.0742c.1434-.1546.3176-.2314.5232-.2314.1861 0 .3204.0546.4047.1642.0829.1097.1056.2612.0663.4558l-.2437 1.226h-.4546l.2201-1.1113c.0226-.1147.0164-.2003-.0186-.2554-.0346-.0552-.1006-.0824-.1959-.0824-.1169 0-.2154.0367-.2955.1096-.0805.0736-.1337.1756-.1598.3056l-.2028 1.0339h-.4555z" fill="#fff"/><path d="m16.4735 14.0204h.4427l-.0502.2599.0628-.0742c.1435-.1546.3183-.2314.5233-.2314.1861 0 .3206.0546.4042.1642.0825.1097.1064.2612.0661.4558l-.2427 1.226h-.4553l.2201-1.1113c.0226-.1147.0164-.2003-.0182-.2554-.0359-.0552-.1007-.0824-.1956-.0824-.117 0-.215.0367-.2962.1096-.0805.0736-.1339.1756-.159.3056l-.2038 1.0339h-.455z" fill="#fff"/><path d="m18.6621 12.9047h1.2853c.2471 0 .4383.0564.5697.1673.1308.1122.1963.2733.1963.4831v.0063c0 .0399-.0027.0849-.0064.1337-.0063.0482-.0145.097-.0251.1477-.0566.2777-.1881.5008-.3912.6701-.2038.1686-.4452.2536-.7231.2536h-.6893l-.2131 1.0541h-.5968zm.3212 1.3546h.5717c.149 0 .2672-.0349.3534-.1039.0855-.0698.1421-.1762.1735-.3208.005-.0267.0081-.0507.012-.0729.0019-.0209.0044-.0419.0044-.0621 0-.1033-.0364-.1781-.1094-.225-.073-.0476-.1874-.0704-.3459-.0704h-.4855z" fill="#fff"/><path d="m23.3848 16.1687c-.1887.4044-.3685.6402-.4741.7498-.1057.1085-.315.3608-.8194.3417l.0434-.3086c.4244-.1319.6539-.7259.7847-.989l-.1559-1.9372.3283-.0044h.2754l.0296 1.2152.5162-1.2152h.5226z" fill="#fff"/><path d="m21.9233 14.1673-.2076.144c-.217-.1712-.415-.277-.7973-.0983-.5207.2434-.9559 2.1103.4779 1.4954l.0817.0976.5641.0146.3704-1.6964zm-.3208.9274c-.0906.2695-.293.4476-.4514.3969-.1585-.0495-.2151-.3094-.1233-.5794.0905-.2701.2943-.4476.4515-.3968.1584.0494.2156.3093.1232.5793z" fill="#fff"/></g></svg>

<svg width="32" height="32" viewBox="0 0 32 32" fill="none" xmlns="http://www.w3.org/2000/svg">
<path d="M26 4C29.3137 4 32 6.68629 32 10L32 22C32 25.3137 29.3137 28 26 28L6 28C2.68629 28 9.75697e-07 25.3137 1.12054e-06 22L1.64508e-06 10C1.78993e-06 6.68629 2.68629 4 6 4L26 4Z" fill="white"/>
<path fill-rule="evenodd" clip-rule="evenodd" d="M30 22L30 10C30 7.79086 28.2091 6 26 6L6 6C3.79086 6 2 7.79086 2 10L2 22C2 24.2091 3.79086 26 6 26L26 26C28.2091 26 30 24.2091 30 22ZM32 10C32 6.68629 29.3137 4 26 4L6 4C2.68629 4 1.78993e-06 6.68629 1.64508e-06 10L1.12054e-06 22C9.75697e-07 25.3137 2.68629 28 6 28L26 28C29.3137 28 32 25.3137 32 22L32 10Z" fill="#CCCCCC"/>
<path fill-rule="evenodd" clip-rule="evenodd" d="M25.0134 9.50372L20.0882 9.50244C20.0876 9.50244 20.0869 9.50244 20.0869 9.50244C20.0831 9.50244 20.0794 9.50312 20.0757 9.50312C19.3991 9.52402 18.5564 10.0711 18.4029 10.7456L16.0737 21.1346C15.9203 21.8154 16.3378 22.3694 17.0095 22.3796H22.1836C22.845 22.3466 23.4878 21.8059 23.6387 21.139L25.9679 10.75C26.1238 10.0622 25.6962 9.50372 25.0134 9.50372Z" fill="#01798A"/>
<path fill-rule="evenodd" clip-rule="evenodd" d="M16.0738 21.1346L18.4029 10.7457C18.5564 10.0711 19.3991 9.52408 20.0757 9.50318L18.1175 9.5019L14.5893 9.50122C13.9109 9.51521 13.0572 10.0661 12.9038 10.7457L10.5739 21.1346C10.4199 21.8155 10.838 22.3695 11.5093 22.3797H17.0095C16.3378 22.3695 15.9203 21.8155 16.0738 21.1346Z" fill="#024381"/>
<path fill-rule="evenodd" clip-rule="evenodd" d="M10.5739 21.1346L12.9037 10.7456C13.0572 10.0661 13.9108 9.51518 14.5893 9.50119L10.0696 9.5C9.38727 9.5 8.51251 10.0572 8.35658 10.7456L6.02674 21.1346C6.01256 21.198 6.00469 21.2601 6 21.3209V21.5137C6.04561 22.01 6.42162 22.3714 6.96211 22.3797H11.5093C10.838 22.3695 10.4198 21.8154 10.5739 21.1346Z" fill="#DD0228"/>
<path fill-rule="evenodd" clip-rule="evenodd" d="M14.6846 17.0713H14.7701C14.8487 17.0713 14.9016 17.0447 14.9264 16.9921L15.1486 16.6567H15.7438L15.6197 16.8773H16.3334L16.2429 17.2152H15.3937C15.2959 17.3635 15.1755 17.4333 15.0307 17.425H14.5884L14.6846 17.0713ZM14.5868 17.5556H16.1504L16.0507 17.9227H15.4219L15.326 18.277H15.9378L15.8382 18.644H15.2263L15.0842 19.1676C15.049 19.2551 15.0952 19.2945 15.2222 19.2855H15.7209L15.6285 19.6266H14.6711C14.4896 19.6266 14.4274 19.522 14.4843 19.3122L14.666 18.644H14.2749L14.3743 18.277H14.7654L14.8613 17.9227H14.4874L14.5868 17.5556ZM17.0824 16.6542L17.0578 16.8691C17.0578 16.8691 17.3527 16.6459 17.6206 16.6459H18.6104L18.2319 18.0272C18.2005 18.1851 18.0659 18.2636 17.8281 18.2636H16.7062L16.4435 19.2335C16.4283 19.2855 16.4497 19.3121 16.5063 19.3121H16.7271L16.6459 19.6132H16.0847C15.8693 19.6132 15.7797 19.5479 15.8152 19.4168L16.5578 16.6542H17.0824ZM17.9206 17.0447H17.0371L16.9315 17.4174C16.9315 17.4174 17.0786 17.3103 17.3245 17.3065C17.5697 17.3026 17.8495 17.3065 17.8495 17.3065L17.9206 17.0447ZM17.6005 17.9093C17.6659 17.9182 17.7024 17.8922 17.7068 17.8307L17.7609 17.6342H16.8761L16.8019 17.9093H17.6005ZM17.0037 18.3556H17.5138L17.5043 18.578H17.6401C17.7087 18.578 17.7427 18.5559 17.7427 18.5122L17.7829 18.3682H18.2068L18.1502 18.578C18.1023 18.753 17.9754 18.8443 17.7691 18.8532H17.4974L17.4962 19.2335C17.4912 19.2944 17.5458 19.3255 17.6583 19.3255H17.9137L17.8313 19.6266H17.2188C17.0471 19.6348 16.963 19.5524 16.9647 19.3774L17.0037 18.3556Z" fill="white"/>
<path fill-rule="evenodd" clip-rule="evenodd" d="M10.8238 14.814C10.7546 15.1557 10.5942 15.4181 10.3455 15.6045C10.099 15.7877 9.7811 15.8796 9.39188 15.8796C9.02559 15.8796 8.75705 15.7857 8.58569 15.5975C8.46684 15.4637 8.40771 15.2938 8.40771 15.0884C8.40771 15.0035 8.4178 14.9122 8.43793 14.814L8.85263 12.7982H9.47896L9.0699 14.7912C9.05731 14.8463 9.05229 14.8977 9.05295 14.944C9.05229 15.046 9.07743 15.1297 9.12837 15.195C9.20257 15.292 9.323 15.3401 9.49059 15.3401C9.68331 15.3401 9.84211 15.2926 9.96535 15.1969C10.0886 15.1018 10.1691 14.9668 10.2053 14.7912L10.6156 12.7982H11.2388L10.8238 14.814Z" fill="white"/>
<path fill-rule="evenodd" clip-rule="evenodd" d="M13.4541 14.0209H13.9446L13.5604 15.8199H13.0708L13.4541 14.0209ZM13.6085 13.3655H14.1034L14.0109 13.8022H13.5161L13.6085 13.3655Z" fill="white"/>
<path fill-rule="evenodd" clip-rule="evenodd" d="M14.3788 15.683C14.2505 15.5594 14.1857 15.3927 14.1851 15.181C14.1851 15.1448 14.1872 15.1036 14.192 15.0586C14.1967 15.0129 14.2027 14.9686 14.2112 14.9274C14.2693 14.6352 14.3932 14.4032 14.5841 14.232C14.7746 14.0602 15.0045 13.974 15.2736 13.974C15.494 13.974 15.6688 14.0361 15.7968 14.1604C15.9248 14.2853 15.9889 14.4538 15.9889 14.6682C15.9889 14.7049 15.9861 14.7474 15.9814 14.793C15.9757 14.8393 15.9688 14.8837 15.9609 14.9274C15.904 15.2152 15.7805 15.4447 15.5896 15.6127C15.3988 15.7819 15.1696 15.8662 14.9023 15.8662C14.6809 15.8662 14.5067 15.8053 14.3788 15.683ZM15.3135 15.3268C15.4 15.2323 15.4619 15.089 15.4997 14.8983C15.5053 14.8685 15.5103 14.8374 15.5135 14.8063C15.5166 14.7759 15.5179 14.7474 15.5179 14.7214C15.5179 14.6104 15.4899 14.5243 15.4336 14.4634C15.3777 14.4019 15.2981 14.3715 15.1953 14.3715C15.0595 14.3715 14.9488 14.4196 14.8621 14.516C14.7746 14.6124 14.7127 14.7582 14.6737 14.9521C14.6683 14.9819 14.6639 15.0117 14.6599 15.0409C14.6567 15.0707 14.6558 15.0986 14.6564 15.1239C14.6564 15.2342 14.6844 15.3192 14.7407 15.3794C14.7966 15.4396 14.8758 15.4694 14.9799 15.4694C15.1164 15.4694 15.2271 15.4218 15.3135 15.3268Z" fill="white"/>
<path fill-rule="evenodd" clip-rule="evenodd" d="M19.1714 17.0865L19.2897 16.6668H19.8877L19.8619 16.8208C19.8619 16.8208 20.1675 16.6668 20.3876 16.6668C20.6077 16.6668 21.127 16.6668 21.127 16.6668L21.0095 17.0865H20.8932L20.3354 19.0655H20.4517L20.341 19.4585H20.2247L20.1763 19.6291H19.5972L19.6455 19.4585H18.5029L18.6143 19.0655H18.7287L19.2871 17.0865H19.1714ZM19.8166 17.0865L19.6644 17.6221C19.6644 17.6221 19.9248 17.5214 20.1493 17.4928C20.1989 17.3058 20.2637 17.0865 20.2637 17.0865L19.8166 17.0865ZM19.5939 17.8731L19.4412 18.4341C19.4412 18.4341 19.7298 18.2909 19.9279 18.2788C19.9851 18.062 20.0424 17.8731 20.0424 17.8731H19.5939ZM19.7059 19.0655L19.8204 18.6586H19.374L19.2589 19.0655H19.7059ZM21.1522 16.6409H21.7145L21.7383 16.85C21.7346 16.9032 21.766 16.9286 21.8326 16.9286H21.932L21.8315 17.283H21.4182C21.2604 17.2912 21.1793 17.2304 21.1718 17.0991L21.1522 16.6409ZM20.9875 17.4009H22.8086L22.7017 17.7813H22.1219L22.0225 18.1349H22.6017L22.4942 18.5146H21.8491L21.7031 18.7372H22.0189L22.0918 19.1828C22.1005 19.2272 22.1395 19.2487 22.2062 19.2487H22.3042L22.2012 19.6157H21.8541C21.6742 19.6246 21.5812 19.5638 21.5736 19.4326L21.4899 19.0256L21.2026 19.4586C21.1346 19.5809 21.0302 19.638 20.8894 19.6291H20.3593L20.4624 19.262H20.6278C20.6958 19.262 20.7523 19.2316 20.8032 19.1701L21.2529 18.5146H20.6731L20.7806 18.1349H21.4094L21.5094 17.7813H20.88L20.9875 17.4009Z" fill="white"/>
<path fill-rule="evenodd" clip-rule="evenodd" d="M11.4003 14.0204H11.8427L11.7921 14.2803L11.8556 14.2061C11.999 14.0515 12.1732 13.9747 12.3788 13.9747C12.5649 13.9747 12.6992 14.0293 12.7835 14.1389C12.8664 14.2486 12.8891 14.4001 12.8498 14.5947L12.6061 15.8207H12.1515L12.3716 14.7094C12.3942 14.5947 12.388 14.5091 12.353 14.454C12.3184 14.3988 12.2524 14.3716 12.1571 14.3716C12.0402 14.3716 11.9417 14.4083 11.8616 14.4812C11.7811 14.5548 11.7279 14.6568 11.7018 14.7868L11.499 15.8207H11.0435L11.4003 14.0204Z" fill="white"/>
<path fill-rule="evenodd" clip-rule="evenodd" d="M16.4735 14.0204H16.9162L16.866 14.2803L16.9288 14.2061C17.0723 14.0515 17.2471 13.9747 17.4521 13.9747C17.6382 13.9747 17.7727 14.0293 17.8563 14.1389C17.9388 14.2486 17.9627 14.4001 17.9224 14.5947L17.6797 15.8207H17.2244L17.4445 14.7094C17.4671 14.5947 17.4609 14.5091 17.4263 14.454C17.3904 14.3988 17.3256 14.3716 17.2307 14.3716C17.1137 14.3716 17.0157 14.4083 16.9345 14.4812C16.854 14.5548 16.8006 14.6568 16.7755 14.7868L16.5717 15.8207H16.1167L16.4735 14.0204" fill="white"/>
<path fill-rule="evenodd" clip-rule="evenodd" d="M18.6621 12.9047H19.9474C20.1945 12.9047 20.3857 12.9611 20.5171 13.072C20.6479 13.1842 20.7134 13.3453 20.7134 13.5551V13.5614C20.7134 13.6013 20.7107 13.6463 20.707 13.6951C20.7007 13.7433 20.6925 13.7921 20.6819 13.8428C20.6253 14.1205 20.4938 14.3436 20.2907 14.5129C20.0869 14.6815 19.8455 14.7665 19.5676 14.7665H18.8783L18.6652 15.8206H18.0684L18.6621 12.9047ZM18.9833 14.2593H19.555C19.704 14.2593 19.8222 14.2244 19.9084 14.1554C19.9939 14.0856 20.0505 13.9792 20.0819 13.8346C20.0869 13.8079 20.09 13.7839 20.0939 13.7617C20.0958 13.7408 20.0983 13.7198 20.0983 13.6996C20.0983 13.5963 20.0619 13.5215 19.9889 13.4746C19.9159 13.427 19.8015 13.4042 19.643 13.4042H19.1575L18.9833 14.2593Z" fill="white"/>
<path fill-rule="evenodd" clip-rule="evenodd" d="M23.3848 16.1687C23.1961 16.5731 23.0163 16.8089 22.9107 16.9185C22.805 17.027 22.5957 17.2793 22.0913 17.2602L22.1347 16.9516C22.5591 16.8197 22.7886 16.2257 22.9194 15.9626L22.7635 14.0254L23.0918 14.021H23.3672L23.3968 15.2362L23.913 14.021H24.4356L23.3848 16.1687Z" fill="white"/>
<path fill-rule="evenodd" clip-rule="evenodd" d="M21.9233 14.1673L21.7157 14.3113C21.4987 14.1401 21.3007 14.0343 20.9184 14.213C20.3977 14.4564 19.9625 16.3233 21.3963 15.7084L21.478 15.806L22.0421 15.8206L22.4125 14.1242L21.9233 14.1673ZM21.6025 15.0947C21.5119 15.3642 21.3095 15.5423 21.1511 15.4916C20.9926 15.4421 20.936 15.1822 21.0278 14.9122C21.1183 14.6421 21.3221 14.4646 21.4793 14.5154C21.6377 14.5648 21.6949 14.8247 21.6025 15.0947Z" fill="white"/>
</svg>
